X: 34452
T: Ride A Mile
R: slip jig
M: 9/8
K: Gmajor
Hg2e|:dBG G2B d2B|dBG G2B gfe|dBG G2B d2B|e2A A2B cBA:|
|:def ~g3 fed|g2B BAB d2B|1 def ~g3 dBd|e2A A2B cBA:|2 def gbg faf|e2a a2f gfe||

